X:619
T: ALS CHRIST DER HERR IN GARTEN GING
N: E1959A
O: Europa, Mitteleuropa, Deutschland, Schlesien
R: geistlich, Fest - Lied, Biblischer Stoff, Passion
M: 3/4
L: 1/8
K: F
 | F2F2F2 | c3_dc2 | c3B_A2 | G4z2
B2B2B2 | B3_AG2 | _A2B2c2 | F4
c2 | B2G2_AG | F4_E2 | _A4B2 | c4z2
c2c2c2 | B4c2 | _A2G3F | F4z2

